src/baseIcons/icon-download.svg

<svg xmlns="http://www.w3.org/2000/svg" xmlns:xlink="http://www.w3.org/1999/xlink" viewBox="0 0 24 24"><defs><path id="a" d="M23 15.0098c.553 0 1 .447 1 1v6c0 1.103-.897 2-2 2H2c-1.103 0-2-.897-2-2v-6c0-.553.447-1 1-1 .553 0 1 .447 1 1v6h20v-6c0-.553.447-1 1-1zM11.994 18c-.0777546 0-.1590778-.0102536-.2367847-.029576-.0138157-.0036741-.0275391-.0074085-.0411918-.0114394-.0265939-.0075936-.0525388-.0164413-.0779773-.0262984-.0107053-.0044117-.0217541-.0089172-.032734-.0136275-.0304648-.0128145-.0598337-.0271941-.0883488-.0429252-.006528-.003877-.0131977-.0076582-.0198315-.0115218-.030376-.0174-.0595602-.0365131-.0876295-.0570559-.0061147-.0048643-.0130201-.0100598-.0198709-.0153559-.0346917-.0263628-.0668123-.0546307-.0970065-.0848249L6.294 12.718c-.392-.391-.392-1.024-.002-1.414.391-.393 1.023-.391 1.414-.002L11 14.59V1c0-.553.447-1 1-1 .553 0 1 .447 1 1v13.588l3.294-3.286c.391-.389 1.023-.391 1.414.002.39.39.39 1.023-.002 1.414l-4.9901681 4.9808161c-.0326325.0334242-.0675924.0645655-.1046202.0931644L12.706 17.708c-.0367027.0367027-.0756245.0699693-.1163457.0997863-.027226.0203123-.0564102.0394254-.0866028.0570023-.0068172.0036867-.0134869.0074679-.0201909.0111668-.0283391.0159092-.057708.0302888-.0878447.0432309-.011308.0045827-.0223568.0090882-.0334684.0133886-.0250322.0099684-.0509771.0188161-.0773795.0266054-.0135171.0037386-.0269099.0073905-.0403604.0107598C12.165788 17.9896567 12.0841204 18 12 18h-.006z"/></defs><use fill="#5F686D" fill-rule="evenodd" xlink:href="#a"/></svg>

<?xml version="1.0" encoding="UTF-8"?>
<svg  viewBox="0 0 24 24" version="1.1" xmlns="http://www.w3.org/2000/svg" xmlns:xlink="http://www.w3.org/1999/xlink">
    <title>Icons/Basic icons/download</title>
    <g  id="Icons/Basic-icons/download" stroke="none" stroke-width="1" fill="none" fill-rule="evenodd">
        <path d="M23,15.0098 C23.553,15.0098 24,15.4568 24,16.0098 L24,22.0098 C24,23.1128 23.103,24.0098 22,24.0098 L2,24.0098 C0.897,24.0098 0,23.1128 0,22.0098 L0,16.0098 C0,15.4568 0.447,15.0098 1,15.0098 C1.553,15.0098 2,15.4568 2,16.0098 L2,22.0098 L22,22.0098 L22,16.0098 C22,15.4568 22.447,15.0098 23,15.0098 Z M12,0 C12.553,0 13,0.447 13,1 L13,14.589 L16.294,11.302 C16.685,10.913 17.317,10.911 17.708,11.304 C18.098,11.694 18.098,12.327 17.706,12.718 L12.707375,17.707375 C12.6771808,17.7375692 12.6450602,17.7658371 12.6112117,17.7919805 L12.706,17.708 C12.6692973,17.7447027 12.6303755,17.7779693 12.5896543,17.8077863 C12.5624283,17.8280986 12.5332441,17.8472117 12.5030515,17.8647886 C12.4962343,17.8684753 12.4895646,17.8722565 12.4828606,17.8759554 C12.4545215,17.8918646 12.4251526,17.9062442 12.3950159,17.9191863 C12.3837079,17.923769 12.3726591,17.9282745 12.3615475,17.9325749 C12.3365153,17.9425433 12.3105704,17.951391 12.284168,17.9591803 C12.2706509,17.9629189 12.2572581,17.9665708 12.2438076,17.9699401 C12.165788,17.9896567 12.0841204,18 12,18 C11.9162454,18 11.8349222,17.9897464 11.7572153,17.970424 C11.7433996,17.9667499 11.7296762,17.9630155 11.7160235,17.9589846 C11.6894296,17.951391 11.6634847,17.9425433 11.6380462,17.9326862 C11.6273409,17.9282745 11.6162921,17.923769 11.6053122,17.9190587 C11.5748474,17.9062442 11.5454785,17.8918646 11.5169634,17.8761335 C11.5104354,17.8722565 11.5037657,17.8684753 11.4971319,17.8646117 C11.4667559,17.8472117 11.4375717,17.8280986 11.4095024,17.8075558 C11.4033668,17.8026762 11.3964408,17.7974648 11.3895698,17.7921522 C11.3517605,17.7633816 11.3168006,17.7322403 11.2841681,17.6988161 L6.294,12.718 C5.902,12.327 5.902,11.694 6.292,11.304 C6.683,10.911 7.315,10.913 7.706,11.302 L11,14.589 L11,1 C11,0.447 11.447,0 12,0 Z"  id="Combined-Shape" fill="#292929"></path>
    </g>
</svg>
